X: 100
T:Marriage March 1
M:6/8
L:1/8
Q:1/8=120
K:G
D|GFG D2 G|B3 G3|ABA E2 F|E3 D3|
GFG D2 G|B3 G3|ABA E2 F|G3 G2:||
d|dcB A^GA|cBA G2 c|B2 A E2 F|AFE D3|
dcB A^GA|cBA G2 c|B2 A E2 F|G3 G2:||
